icons/media/disc-heart-24.svg

<svg width="24" height="24" viewBox="0 0 24 24" fill="none" xmlns="http://www.w3.org/2000/svg">
<path fill-rule="evenodd" clip-rule="evenodd" d="M16.9503 16.4632C16.2135 16.4634 15.4321 17.1513 15.4318 18.124C15.4315 19.2956 16.293 20.3944 17.277 21.2504C17.8128 21.7127 18.3892 22.1234 18.9988 22.4776C19.1013 22.418 19.2379 22.3364 19.398 22.234C19.8613 21.9385 20.3041 21.609 20.7214 21.249C21.7053 20.3938 22.5679 19.294 22.5682 18.1224C22.5685 17.1493 21.787 16.4619 21.0506 16.4621C20.5323 16.4622 20.1012 16.6936 19.785 17.0915C19.3843 17.5958 18.6158 17.5957 18.2156 17.0918C17.8999 16.6943 17.4687 16.4631 16.9503 16.4632ZM14 18.1244C14.0005 16.3442 15.4231 15.0016 16.9507 15.0011C17.7596 15.0009 18.4625 15.3103 19.0007 15.8149C19.5392 15.31 20.2419 15.0002 21.051 15C22.5781 14.9996 24.0005 16.3414 24 18.122C23.9995 19.987 22.6801 21.4662 21.6481 22.363L21.6462 22.3646C21.1763 22.7702 20.6785 23.1408 20.1566 23.4736C19.9539 23.6032 19.7843 23.7035 19.6649 23.7723L19.664 23.7728C19.5981 23.8106 19.5324 23.847 19.468 23.8818C19.4539 23.8894 19.4396 23.8965 19.4251 23.9031C19.2917 23.9668 19.146 24 18.9984 24C18.8381 24 18.6801 23.961 18.5375 23.8862L18.5338 23.8842C18.4662 23.8482 18.3992 23.8112 18.3328 23.773C17.6308 23.3688 16.967 22.8976 16.3515 22.3665L16.3494 22.3647C15.3177 21.4674 13.9995 19.9893 14 18.1244Z" fill="black"/>
<path fill-rule="evenodd" clip-rule="evenodd" d="M12 2.5C6.75329 2.5 2.5 6.75329 2.5 12C2.5 17.2467 6.75329 21.5 12 21.5C12.4142 21.5 12.75 21.8358 12.75 22.25C12.75 22.6642 12.4142 23 12 23C5.92487 23 1 18.0751 1 12C1 5.92487 5.92487 1 12 1C18.0751 1 23 5.92487 23 12C23 12.4142 22.6642 12.75 22.25 12.75C21.8358 12.75 21.5 12.4142 21.5 12C21.5 6.75329 17.2467 2.5 12 2.5Z" fill="black"/>
<path fill-rule="evenodd" clip-rule="evenodd" d="M12 13.5C12.8284 13.5 13.5 12.8284 13.5 12C13.5 11.1716 12.8284 10.5 12 10.5C11.1716 10.5 10.5 11.1716 10.5 12C10.5 12.8284 11.1716 13.5 12 13.5ZM12 15C13.6569 15 15 13.6569 15 12C15 10.3431 13.6569 9 12 9C10.3431 9 9 10.3431 9 12C9 13.6569 10.3431 15 12 15Z" fill="black"/>
</svg>

<svg xmlns="http://www.w3.org/2000/svg" width="24" height="24"><path fill-rule="evenodd" d="M16.95 16.463c-.736 0-1.518.688-1.518 1.661 0 1.172.861 2.27 1.845 3.126.536.463 1.112.873 1.722 1.228a11.469 11.469 0 001.723-1.229c.983-.855 1.846-1.955 1.846-3.127 0-.973-.781-1.66-1.517-1.66-.519 0-.95.232-1.266.63-.4.504-1.17.504-1.57 0-.315-.398-.746-.629-1.265-.629zM14 18.124c0-1.78 1.423-3.122 2.95-3.123.81 0 1.512.31 2.05.814A2.957 2.957 0 0121.052 15c1.527 0 2.95 1.341 2.949 3.122 0 1.865-1.32 3.344-2.352 4.241l-.002.002a12.87 12.87 0 01-1.981 1.407h-.001a8.857 8.857 0 01-.239.131.99.99 0 01-.887-.017l-.004-.002a12.845 12.845 0 01-2.182-1.518l-.003-.001c-1.031-.898-2.35-2.376-2.349-4.24z"/><path fill-rule="evenodd" d="M12 2.5a9.5 9.5 0 100 19 .75.75 0 010 1.5C5.925 23 1 18.075 1 12S5.925 1 12 1s11 4.925 11 11a.75.75 0 01-1.5 0A9.5 9.5 0 0012 2.5z"/><path fill-rule="evenodd" d="M12 13.5a1.5 1.5 0 100-3 1.5 1.5 0 000 3zm0 1.5a3 3 0 100-6 3 3 0 000 6z"/></svg>
